icon-themes/breeze_svg/cmd/sc_symbolshapes.svg

<svg viewBox="0 0 16 16" xmlns="http://www.w3.org/2000/svg">/&gt;<path d="m8 2c-3.31371 0-6 2.68629-6 6s2.68629 6 6 6 6-2.68629 6-6-2.68629-6-6-6zm-2 3c.55228 0 1 .44772 1 1s-.44772 1-1 1-1-.44772-1-1 .44772-1 1-1zm4 0c.55228 0 1 .44772 1 1s-.44772 1-1 1-1-.44772-1-1 .44772-1 1-1zm-5 4h6c0 1.65685-1.34315 3-3 3s-3-1.34315-3-3z" fill="#4d4d4d"/></svg>

<svg xmlns="http://www.w3.org/2000/svg" viewBox="0 0 16 16">
     />
 <path 
     style="fill:#4d4d4d" 
     d="M 8 2 C 4.68629 2 2 4.68629 2 8 C 2 11.31371 4.68629 14 8 14 C 11.31371 14 14 11.31371 14 8 C 14 4.68629 11.31371 2 8 2 z M 6 5 C 6.55228 5 7 5.44772 7 6 C 7 6.55228 6.55228 7 6 7 C 5.44772 7 5 6.55228 5 6 C 5 5.44772 5.44772 5 6 5 z M 10 5 C 10.55228 5 11 5.44772 11 6 C 11 6.55228 10.55228 7 10 7 C 9.44772 7 9 6.55228 9 6 C 9 5.44772 9.44772 5 10 5 z M 5 9 L 11 9 C 11 10.65685 9.65685 12 8 12 C 6.34315 12 5 10.65685 5 9 z "
     />
 </svg>
